src/brands/coach/default/asset/icon/object/repair.svg

<svg width="24" height="24" viewBox="0 0 24 24" fill="none" xmlns="http://www.w3.org/2000/svg">
<path d="M16.6612 7.97666C16.465 8.17293 16.465 8.46732 16.6612 8.66358C16.8575 8.85984 17.1519 8.85984 17.3482 8.66358C17.5444 8.46732 17.5444 8.17293 17.3482 7.97666C17.1519 7.7804 16.8575 7.7804 16.6612 7.97666Z" fill="#231F20"/>
<path d="M16.6612 5.22898C16.465 5.42525 16.465 5.71964 16.6612 5.9159C16.8575 6.11216 17.1519 6.11216 17.3482 5.9159C17.5444 5.71964 17.5444 5.42525 17.3482 5.22898C17.1519 5.03272 16.8575 5.03272 16.6612 5.22898Z" fill="#231F20"/>
<path d="M18.035 6.60276C17.8388 6.79902 17.8388 7.09342 18.035 7.28968C18.2313 7.48594 18.5257 7.48594 18.7219 7.28968C18.9182 7.09342 18.9182 6.79902 18.7219 6.60276C18.5257 6.4065 18.2313 6.4065 18.035 6.60276Z" fill="#231F20"/>
<path d="M15.2873 6.60276C15.0911 6.79902 15.0911 7.09342 15.2873 7.28968C15.4836 7.48594 15.778 7.48594 15.9742 7.28968C16.1705 7.09342 16.1705 6.79902 15.9742 6.60276C15.778 6.4065 15.4836 6.4065 15.2873 6.60276Z" fill="#231F20"/>
<path d="M5.22898 16.6612C5.03272 16.8575 5.03272 17.1519 5.22898 17.3481C5.42524 17.5444 5.71964 17.5444 5.9159 17.3481C6.11216 17.1519 6.11216 16.8575 5.9159 16.6612C5.71964 16.465 5.42524 16.465 5.22898 16.6612Z" fill="#231F20"/>
<path d="M6.60276 18.035C6.4065 18.2313 6.4065 18.5257 6.60276 18.7219C6.79902 18.9182 7.09342 18.9182 7.28968 18.7219C7.48594 18.5257 7.48594 18.2313 7.28968 18.035C7.09342 17.8388 6.79902 17.8388 6.60276 18.035Z" fill="#231F20"/>
<path d="M6.60276 15.2873C6.4065 15.4836 6.4065 15.778 6.60276 15.9742C6.79902 16.1705 7.09342 16.1705 7.28968 15.9742C7.48594 15.778 7.48594 15.4836 7.28968 15.2873C7.09342 15.0911 6.79902 15.0911 6.60276 15.2873Z" fill="#231F20"/>
<path d="M7.97666 16.6612C7.7804 16.8575 7.7804 17.1519 7.97666 17.3481C8.17293 17.5444 8.46732 17.5444 8.66358 17.3481C8.85984 17.1519 8.85984 16.8575 8.66358 16.6612C8.46732 16.465 8.17293 16.465 7.97666 16.6612Z" fill="#231F20"/>
<path d="M15.2873 17.3481C15.4836 17.5444 15.778 17.5444 15.9742 17.3481C16.1705 17.1519 16.1705 16.8575 15.9742 16.6612C15.778 16.465 15.4836 16.465 15.2873 16.6612C15.0911 16.8575 15.0911 17.1519 15.2873 17.3481Z" fill="#231F20"/>
<path d="M17.3482 18.7219C17.5444 18.5257 17.5444 18.2313 17.3482 18.035C17.1519 17.8388 16.8575 17.8388 16.6612 18.035C16.465 18.2313 16.465 18.5257 16.6612 18.7219C16.8575 18.9182 17.1519 18.9182 17.3482 18.7219Z" fill="#231F20"/>
<path d="M17.3482 15.9742C17.5444 15.778 17.5444 15.4836 17.3482 15.2873C17.1519 15.0911 16.8575 15.0911 16.6612 15.2873C16.465 15.4836 16.465 15.778 16.6612 15.9742C16.8575 16.1705 17.1519 16.1705 17.3482 15.9742Z" fill="#231F20"/>
<path d="M22.2056 15.9743L18.2313 12L17.8879 12.3435L21.8621 16.3178C22.0584 16.514 22.0584 16.8084 21.8621 17.0047L17.0047 21.8621C16.8084 22.0584 16.514 22.0584 16.3178 21.8621L12.3435 17.8879L18.2313 12L22.2056 8.0257C22.5981 7.63318 22.5981 7.04439 22.2056 6.65187L17.3481 1.79439C16.9556 1.40187 16.3668 1.40187 15.9743 1.79439L12 5.76869L8.0257 1.79439C7.63318 1.40187 7.04439 1.40187 6.65187 1.79439L1.79439 6.65187C1.40187 7.04439 1.40187 7.63318 1.79439 8.0257L5.76869 12L1.79439 15.9743C1.40187 16.3668 1.40187 16.9556 1.79439 17.3481L6.65187 22.2056C7.04439 22.5981 7.63318 22.5981 8.0257 22.2056L12 18.2313L15.9743 22.2056C16.3668 22.5981 16.9556 22.5981 17.3481 22.2056L22.2056 17.3481C22.5981 16.9556 22.5981 16.3668 22.2056 15.9743ZM2.08879 7.63318C1.89252 7.43692 1.89252 7.14252 2.08879 6.94626L6.94626 2.08879C7.14252 1.89252 7.43692 1.89252 7.63318 2.08879L11.6075 6.06308L6.06308 11.6075L2.08879 7.63318ZM7.63318 21.8621C7.43692 22.0584 7.14252 22.0584 6.94626 21.8621L2.08879 17.0047C1.89252 16.8084 1.89252 16.514 2.08879 16.3178L16.3178 2.08879C16.514 1.89252 16.8084 1.89252 17.0047 2.08879L21.8621 6.94626C22.0584 7.14252 22.0584 7.43692 21.8621 7.63318L7.63318 21.8621Z" fill="#231F20"/>
<path d="M18.7219 17.3481C18.9182 17.1519 18.9182 16.8575 18.7219 16.6612C18.5257 16.465 18.2313 16.465 18.035 16.6612C17.8388 16.8575 17.8388 17.1519 18.035 17.3481C18.2313 17.5444 18.5257 17.5444 18.7219 17.3481Z" fill="#231F20"/>
<path d="M8.66358 6.60276C8.46732 6.4065 8.17293 6.4065 7.97666 6.60276C7.7804 6.79902 7.7804 7.09342 7.97666 7.28968C8.17293 7.48594 8.46732 7.48594 8.66358 7.28968C8.85984 7.09342 8.85984 6.79902 8.66358 6.60276Z" fill="#231F20"/>
<path d="M5.22898 6.60276C5.03272 6.79902 5.03272 7.09342 5.22898 7.28968C5.42524 7.48594 5.71964 7.48594 5.9159 7.28968C6.11216 7.09342 6.11216 6.79902 5.9159 6.60276C5.71964 6.4065 5.42524 6.4065 5.22898 6.60276Z" fill="#231F20"/>
<path d="M6.60276 5.22898C6.4065 5.42525 6.4065 5.71964 6.60276 5.9159C6.79902 6.11216 7.09342 6.11216 7.28968 5.9159C7.48594 5.71964 7.48594 5.42525 7.28968 5.22898C7.09342 5.03272 6.79902 5.03272 6.60276 5.22898Z" fill="#231F20"/>
<path d="M6.60276 7.97666C6.4065 8.17293 6.4065 8.46732 6.60276 8.66358C6.79902 8.85984 7.09342 8.85984 7.28968 8.66358C7.48594 8.46732 7.48594 8.17293 7.28968 7.97666C7.09342 7.7804 6.79902 7.7804 6.60276 7.97666Z" fill="#231F20"/>
</svg>

<svg xmlns="http://www.w3.org/2000/svg" viewBox="0 0 21 21"><path d="M16.66,8a.48.48,0,0,0,0,.68.47.47,0,0,0,.69,0,.48.48,0,0,0,0-.68A.47.47,0,0,0,16.66,8Z" transform="translate(-1.5 -1.5)" fill="#231f20"/><path d="M16.66,5.23a.49.49,0,1,0,.69,0A.47.47,0,0,0,16.66,5.23Z" transform="translate(-1.5 -1.5)" fill="#231f20"/><path d="M18,6.6a.49.49,0,0,0,0,.69.49.49,0,1,0,.69-.69A.49.49,0,0,0,18,6.6Z" transform="translate(-1.5 -1.5)" fill="#231f20"/><path d="M15.29,6.6a.47.47,0,0,0,0,.69.46.46,0,0,0,.68,0,.47.47,0,0,0,0-.69A.48.48,0,0,0,15.29,6.6Z" transform="translate(-1.5 -1.5)" fill="#231f20"/><path d="M5.23,16.66a.47.47,0,0,0,0,.69.49.49,0,1,0,0-.69Z" transform="translate(-1.5 -1.5)" fill="#231f20"/><path d="M6.6,18a.49.49,0,0,0,0,.69A.49.49,0,1,0,7.29,18,.49.49,0,0,0,6.6,18Z" transform="translate(-1.5 -1.5)" fill="#231f20"/><path d="M6.6,15.29a.48.48,0,0,0,0,.68.47.47,0,0,0,.69,0,.46.46,0,0,0,0-.68A.47.47,0,0,0,6.6,15.29Z" transform="translate(-1.5 -1.5)" fill="#231f20"/><path d="M8,16.66a.47.47,0,0,0,0,.69.48.48,0,0,0,.68,0,.47.47,0,0,0,0-.69A.48.48,0,0,0,8,16.66Z" transform="translate(-1.5 -1.5)" fill="#231f20"/><path d="M15.29,17.35a.48.48,0,0,0,.68,0,.47.47,0,0,0,0-.69.48.48,0,0,0-.68,0A.47.47,0,0,0,15.29,17.35Z" transform="translate(-1.5 -1.5)" fill="#231f20"/><path d="M17.35,18.72a.49.49,0,1,0-.69,0A.47.47,0,0,0,17.35,18.72Z" transform="translate(-1.5 -1.5)" fill="#231f20"/><path d="M17.35,16a.48.48,0,0,0,0-.68.47.47,0,0,0-.69,0,.48.48,0,0,0,0,.68A.47.47,0,0,0,17.35,16Z" transform="translate(-1.5 -1.5)" fill="#231f20"/><path d="M22.21,16l-4-4-.34.34,4,4a.46.46,0,0,1,0,.68L17,21.86a.46.46,0,0,1-.68,0l-4-4L18.23,12l4-4a1,1,0,0,0,0-1.38L17.35,1.79a1,1,0,0,0-1.38,0l-4,4-4-4a1,1,0,0,0-1.38,0L1.79,6.65A1,1,0,0,0,1.79,8l4,4-4,4a1,1,0,0,0,0,1.38l4.86,4.86a1,1,0,0,0,1.38,0l4-4,4,4a1,1,0,0,0,1.38,0l4.86-4.86A1,1,0,0,0,22.21,16ZM2.09,7.63a.46.46,0,0,1,0-.68L7,2.09a.46.46,0,0,1,.68,0l4,4L6.06,11.61ZM7.63,21.86a.46.46,0,0,1-.68,0L2.09,17a.46.46,0,0,1,0-.68L16.32,2.09a.46.46,0,0,1,.68,0L21.86,7a.46.46,0,0,1,0,.68Z" transform="translate(-1.5 -1.5)" fill="#231f20"/><path d="M18.72,17.35a.47.47,0,0,0,0-.69.49.49,0,1,0,0,.69Z" transform="translate(-1.5 -1.5)" fill="#231f20"/><path d="M8.66,6.6A.48.48,0,0,0,8,6.6a.47.47,0,0,0,0,.69.46.46,0,0,0,.68,0A.47.47,0,0,0,8.66,6.6Z" transform="translate(-1.5 -1.5)" fill="#231f20"/><path d="M5.23,6.6a.49.49,0,1,0,.69.69.49.49,0,0,0-.69-.69Z" transform="translate(-1.5 -1.5)" fill="#231f20"/><path d="M6.6,5.23a.49.49,0,0,0,.69.69.49.49,0,1,0-.69-.69Z" transform="translate(-1.5 -1.5)" fill="#231f20"/><path d="M6.6,8a.48.48,0,0,0,0,.68.47.47,0,0,0,.69,0,.46.46,0,0,0,0-.68A.47.47,0,0,0,6.6,8Z" transform="translate(-1.5 -1.5)" fill="#231f20"/></svg>
